packages/dnb-eufemia/assets/icons/camper_trailer.svg

<svg width="16" height="16" viewBox="0 0 16 16" fill="none" xmlns="http://www.w3.org/2000/svg">
<path d="M6.6 12.1538C6.6 13.1734 5.76427 14 4.73333 14C3.7024 14 2.86667 13.1734 2.86667 12.1538M6.6 12.1538C6.6 11.1342 5.76427 10.3077 4.73333 10.3077C3.7024 10.3077 2.86667 11.1342 2.86667 12.1538M6.6 12.1538H12.2M2.86667 12.1538H1.93333C1.42498 12.1538 1 11.7335 1 11.2308V2.92308C1 2.42031 1.42498 2 1.93333 2H8.46667C10.5001 2 12.2 3.68123 12.2 5.69231V12.1538M12.2 12.1538H15M3.8735 7C3.52986 7 3.25128 6.72448 3.25128 6.38462V4.84615C3.25128 4.50629 3.52986 4.23077 3.8735 4.23077H6.22906C6.5727 4.23077 6.85128 4.50629 6.85128 4.84615V6.38462C6.85128 6.72448 6.5727 7 6.22906 7H3.8735Z" stroke="black" stroke-width="1.5" stroke-linecap="round" stroke-linejoin="round"/>
</svg>

<svg width="16" height="16" viewBox="0 0 16 16" fill="none" xmlns="http://www.w3.org/2000/svg"><path d="M6.6 12.154C6.6 13.174 5.764 14 4.733 14a1.857 1.857 0 0 1-1.866-1.846m3.733 0c0-1.02-.836-1.846-1.867-1.846-1.03 0-1.866.826-1.866 1.846m3.733 0h5.6m-9.333 0h-.934A.937.937 0 0 1 1 11.23V2.923C1 2.42 1.425 2 1.933 2h6.534C10.5 2 12.2 3.681 12.2 5.692v6.462m0 0H15M3.873 7a.619.619 0 0 1-.622-.615V4.846c0-.34.279-.615.623-.615h2.355c.344 0 .622.275.622.615v1.539c0 .34-.278.615-.622.615H3.873Z" stroke="#000" stroke-width="1.5" stroke-linecap="round" stroke-linejoin="round"/></svg>
